X:672
T:
N:Engelska,
S: efter »Florsen» i Burs.
R:kadrilj
O:Gotland, Burs
M:2/4
L:1/16
K:G
gBdg b2ag|fdfa c'2b2|gBdg b2ag|fdfa g2 z2::gabg d2d2|dced c2B2|Adfa
c'afd|efga bag2|gabg d2d2|dced c2B2|Adfa c'afd|.e2.f2 g2 z2:|

